X:915
T:Reel 915
M:4/4
K:Gmaj
L:1/8
ge|dBge dedB|GBdB A2Ae|dBde dBgb||afde d2fe:||2afef g2ge|dega bgab|c'bc'd' e'c'ac'|d'c'ba gfed|egdB A2g2|bc'ba gbe'b|d'bgb a2e2|dega bd'd'c'|bd'ab g2ge|
